_assets/images/vector/mobile_icon.svg

<svg viewBox="0 0 22 35" version="1.1" xmlns="http://www.w3.org/2000/svg" xmlns:xlink="http://www.w3.org/1999/xlink">
    <g id="Canvas" transform="translate(-32361 -5444)">
        <g id="Rectangle 16">
            <use xlink:href="#path0_stroke" transform="translate(32361.5 5444.5)" fill="#A6A6A6"/>
        </g>
    </g>
    <defs>
        <path id="path0_stroke" d="M 2 0.5L 19 0.5L 19 -0.5L 2 -0.5L 2 0.5ZM 20.5 2L 20.5 32L 21.5 32L 21.5 2L 20.5 2ZM 19 33.5L 2 33.5L 2 34.5L 19 34.5L 19 33.5ZM 0.5 32L 0.5 2L -0.5 2L -0.5 32L 0.5 32ZM 2 -0.5C 0.619288 -0.5 -0.5 0.619288 -0.5 2L 0.5 2C 0.5 1.17157 1.17157 0.5 2 0.5L 2 -0.5ZM 19 0.5C 19.8284 0.5 20.5 1.17157 20.5 2L 21.5 2C 21.5 0.619288 20.3807 -0.5 19 -0.5L 19 0.5ZM 20.5 32C 20.5 32.8284 19.8284 33.5 19 33.5L 19 34.5C 20.3807 34.5 21.5 33.3807 21.5 32L 20.5 32ZM 2 33.5C 1.17157 33.5 0.5 32.8284 0.5 32L -0.5 32C -0.5 33.3807 0.619288 34.5 2 34.5L 2 33.5Z"/>
    </defs>
</svg>

<svg viewBox="0 0 22 35" xmlns="http://www.w3.org/2000/svg" xmlns:xlink="http://www.w3.org/1999/xlink"><use xlink:href="#a" transform="translate(.5 .5)" fill="#A6A6A6"/><defs><path id="a" d="M2 .5h17v-1H2v1zM20.5 2v30h1V2h-1zM19 33.5H2v1h17v-1zM.5 32V2h-1v30h1zM2-.5A2.5 2.5 0 0 0-.5 2h1A1.5 1.5 0 0 1 2 .5v-1zm17 1A1.5 1.5 0 0 1 20.5 2h1A2.5 2.5 0 0 0 19-.5v1zM20.5 32a1.5 1.5 0 0 1-1.5 1.5v1a2.5 2.5 0 0 0 2.5-2.5h-1zM2 33.5A1.5 1.5 0 0 1 .5 32h-1A2.5 2.5 0 0 0 2 34.5v-1z"/></defs></svg>
